src/pos-icons/account-key.svg

<svg height="24" viewBox="0 0 24 24" width="24" xmlns="http://www.w3.org/2000/svg"><path d="m11 10v2h-1v2h-2v-2h-2.17c-.41 1.17-1.52 2-2.83 2a3 3 0 0 1 -3-3 3 3 0 0 1 3-3c1.31 0 2.42.83 2.83 2zm-8 0a1 1 0 0 0 -1 1 1 1 0 0 0 1 1 1 1 0 0 0 1-1 1 1 0 0 0 -1-1m13 4c2.67 0 8 1.34 8 4v2h-16v-2c0-2.66 5.33-4 8-4m0-2a4 4 0 0 1 -4-4 4 4 0 0 1 4-4 4 4 0 0 1 4 4 4 4 0 0 1 -4 4z"/></svg>

<?xml version="1.0" encoding="UTF-8"?><!DOCTYPE svg PUBLIC "-//W3C//DTD SVG 1.1//EN" "http://www.w3.org/Graphics/SVG/1.1/DTD/svg11.dtd"><svg xmlns="http://www.w3.org/2000/svg" xmlns:xlink="http://www.w3.org/1999/xlink" version="1.1" id="mdi-account-key" width="24" height="24" viewBox="0 0 24 24"><path d="M11,10V12H10V14H8V12H5.83C5.42,13.17 4.31,14 3,14A3,3 0 0,1 0,11A3,3 0 0,1 3,8C4.31,8 5.42,8.83 5.83,10H11M3,10A1,1 0 0,0 2,11A1,1 0 0,0 3,12A1,1 0 0,0 4,11A1,1 0 0,0 3,10M16,14C18.67,14 24,15.34 24,18V20H8V18C8,15.34 13.33,14 16,14M16,12A4,4 0 0,1 12,8A4,4 0 0,1 16,4A4,4 0 0,1 20,8A4,4 0 0,1 16,12Z" /></svg>
